X: 1
T: The Charmer
T: 8x32J 3C (RSCDS Bk 29)
T: (or A Reel for Alec - Kaurie Colln)
P: Innes's Jig
C: RSCDS Bk 29, arr. T. Traub 6-1-2015
R: Jig
M: 6/8
K: G
L: 1/8
|: D|"G"GAG BAG|"G"d2 G "C"e2 g|"Am"edc "A"BAG|"A"EAA "D"A2 B|"G"GAG BAG|
"G"d2 G "C"e2 G|"Am"gfe "D"dec|"G"BGG G2 :||: d|"G"gdB GAG|"G"DED GAG|
"Am"edc "A"BAG|"A"EAA "D"A2 f|"G"gdB GAG|"Em"ecA "D"FED|"Em"gfe "D"ded|"G"BGG G2 :|
